src/pages/guidelines/pictograms/images/16_Containers_8_dont.svg

<?xml version="1.0" encoding="UTF-8"?>
<svg width="288px" height="288px" viewBox="0 0 288 288" version="1.1" xmlns="http://www.w3.org/2000/svg" xmlns:xlink="http://www.w3.org/1999/xlink">
    <!-- Generator: Sketch 52.4 (67378) - http://www.bohemiancoding.com/sketch -->
    <title>Artboard</title>
    <desc>Created with Sketch.</desc>
    <defs>
        <path d="M92,0 C41.1897143,0 0,41.1897143 0,92 C0,142.810286 41.1897143,184 92,184 C142.810286,184 184,142.810286 184,92 C184,41.1897143 142.810286,0 92,0 Z" id="path-1"></path>
    </defs>
    <g id="Artboard" stroke="none" stroke-width="1" fill="none" fill-rule="evenodd">
        <rect id="Rectangle-3-Copy-45" fill="#FFFFFF" x="0" y="0" width="288" height="288"></rect>
        <g id="Group-6-Copy" transform="translate(52.000000, 52.000000)">
            <path d="M184,92 C184,142.810286 142.810286,184 92,184 C41.1897143,184 0,142.810286 0,92 C0,41.1897143 41.1897143,0 92,0 C142.810286,0 184,41.1897143 184,92" id="Fill-1" fill="#000000"></path>
            <g id="Group-5">
                <mask id="mask-2" fill="white">
                    <use xlink:href="#path-1"></use>
                </mask>
                <g id="Clip-4"></g>
                <path d="M129,146 L96.7859448,146 L96.7859448,62.2727984 C96.7859448,61.3280498 96.0179276,60.5625301 95.0700968,60.5625301 L61,60.5625301 L61,45 L129,45 L129,146 Z M93,165 L60.6441536,165 L60.6441536,81.2727984 C60.6441536,80.3280498 59.8761708,79.5625301 58.9283826,79.5625301 L25,79.5625301 L25,64 L93,64 L93,165 Z M-10,184 L58,184 L58,83 L-10,83 L-10,184 Z M130.287542,42 L59,42 C58.0540417,42 57.2905833,42.7664681 57.2905833,43.712387 L57.2905833,61.0096246 L23.4277083,61.0096246 C22.48175,61.0096246 21.7182917,61.7760927 21.7182917,62.7220116 L21.7182917,80.0192492 L-12.2905833,80.0192492 C-13.2335,80.0192492 -14,80.7857173 -14,81.7316362 L-14,186.284571 C-14,187.233532 -13.2335,188 -12.2905833,188 L59,188 C59.9459583,188 60.7124583,187.233532 60.7124583,186.284571 L60.7124583,168.990375 L94.71525,168.990375 C95.6612083,168.990375 96.4277083,168.223907 96.4277083,167.274947 L96.4277083,149.980751 L130.287542,149.980751 C131.2335,149.980751 132,149.214283 132,148.265322 L132,43.712387 C132,42.7664681 131.2335,42 130.287542,42 Z" id="Fill-3" fill="#FFFFFF" mask="url(#mask-2)"></path>
            </g>
        </g>
    </g>
</svg>

<svg xmlns="http://www.w3.org/2000/svg" xmlns:xlink="http://www.w3.org/1999/xlink" viewBox="0 0 288 288"><defs><path d="M92 0C41.19 0 0 41.19 0 92s41.19 92 92 92 92-41.19 92-92S142.81 0 92 0z" id="a"/></defs><g fill="none" fill-rule="evenodd"><path fill="#FFF" d="M0 0h288v288H0z"/><path d="M236 144c0 50.81-41.19 92-92 92s-92-41.19-92-92 41.19-92 92-92 92 41.19 92 92" fill="#000"/><g transform="translate(52 52)"><mask id="b" fill="#fff"><use xlink:href="#a"/></mask><path d="M129 146H96.786V62.273c0-.945-.768-1.71-1.716-1.71H61V45h68v101zm-36 19H60.644V81.273c0-.945-.768-1.71-1.716-1.71H25V64h68v101zm-103 19h68V83h-68v101zM130.288 42H59a1.71 1.71 0 00-1.71 1.712V61.01H23.429a1.71 1.71 0 00-1.71 1.712v17.297H-12.29c-.942 0-1.709.767-1.709 1.713v104.553c0 .949.767 1.715 1.71 1.715H59c.946 0 1.712-.766 1.712-1.715V168.99h34.003c.946 0 1.713-.766 1.713-1.715V149.98h33.86c.945 0 1.712-.767 1.712-1.716V43.712c0-.946-.767-1.712-1.712-1.712z" fill="#FFF" mask="url(#b)"/></g></g></svg>
